Sources/FrostedUI/Resources/Icons.xcassets/dashboard32.imageset/dashboard-32.svg

<svg width="32" height="32" viewBox="0 0 32 32" fill="none" xmlns="http://www.w3.org/2000/svg" data-fui-icon="true">
  <path
    d="M16 1.91699C19.6609 1.91699 21.6837 1.90598 23.3311 2.48242C26.2271 3.496 28.5041 5.77377 29.5176 8.66992C30.0939 10.3172 30.084 12.3394 30.084 16C30.084 19.6609 30.094 21.6837 29.5176 23.3311C28.504 26.227 26.227 28.5041 23.3311 29.5176C21.6837 30.094 19.6609 30.084 16 30.084C12.3393 30.084 10.3172 30.0939 8.66992 29.5176C5.7738 28.5041 3.49601 26.2271 2.48242 23.3311C1.90599 21.6837 1.91699 19.6609 1.91699 16C1.91699 12.3393 1.90609 10.3172 2.48242 8.66992C3.49592 5.77352 5.77352 3.49592 8.66992 2.48242C10.3173 1.90604 12.3392 1.91699 16 1.91699ZM16 3.41699C12.2137 3.41699 10.5112 3.42742 9.16504 3.89844C6.69973 4.76118 4.76118 6.69973 3.89844 9.16504C3.42747 10.5112 3.41699 12.2138 3.41699 16C3.41699 19.7861 3.4275 21.4888 3.89844 22.835C4.76118 25.3002 6.69986 27.2388 9.16504 28.1016C10.5112 28.5725 12.2139 28.584 16 28.584C19.7864 28.584 21.4888 28.5726 22.835 28.1016C25.3004 27.2388 27.2388 25.3004 28.1016 22.835C28.5726 21.4888 28.584 19.7863 28.584 16C28.584 12.214 28.5725 10.5111 28.1016 9.16504C27.2388 6.69984 25.3002 4.76116 22.835 3.89844C21.4888 3.42749 19.7862 3.41699 16 3.41699ZM23.4697 12.1367C23.7626 11.8438 24.2374 11.8438 24.5303 12.1367C24.823 12.4296 24.8231 12.9044 24.5303 13.1973L19.2783 18.4502C18.2045 19.5238 16.4626 19.5238 15.3887 18.4502L13.5508 16.6113C13.0627 16.1233 12.2714 16.1235 11.7832 16.6113L8.53027 19.8643C8.23746 20.1567 7.76253 20.1567 7.46973 19.8643C7.17695 19.5715 7.17718 19.0966 7.46973 18.8037L10.7217 15.5508C11.7956 14.4768 13.5374 14.4768 14.6113 15.5508L16.4492 17.3887C16.9373 17.8766 17.7287 17.8766 18.2168 17.3887L23.4697 12.1367Z"
    fill="currentColor"
  />
</svg>

<svg xmlns="http://www.w3.org/2000/svg" width="32" height="32" fill="none" data-fui-icon="true" viewBox="0 0 32 32"><path fill="currentColor" d="M16 1.917c3.66 0 5.684-.011 7.331.565a10.09 10.09 0 0 1 6.187 6.188c.576 1.647.566 3.67.566 7.33s.01 5.684-.566 7.331a10.08 10.08 0 0 1-6.187 6.187c-1.647.576-3.67.566-7.331.566-3.66 0-5.683.01-7.33-.566a10.09 10.09 0 0 1-6.188-6.187c-.576-1.647-.565-3.67-.565-7.331 0-3.66-.01-5.683.565-7.33A10.08 10.08 0 0 1 8.67 2.482c1.647-.576 3.67-.565 7.33-.565m0 1.5c-3.786 0-5.489.01-6.835.481a8.58 8.58 0 0 0-5.267 5.267c-.47 1.346-.481 3.049-.481 6.835s.01 5.489.481 6.835a8.59 8.59 0 0 0 5.267 5.267c1.346.47 3.049.482 6.835.482s5.489-.011 6.835-.482a8.58 8.58 0 0 0 5.267-5.267c.47-1.346.482-3.049.482-6.835s-.011-5.489-.482-6.835a8.59 8.59 0 0 0-5.267-5.267c-1.346-.47-3.049-.481-6.835-.481m7.47 8.72a.75.75 0 1 1 1.06 1.06l-5.252 5.253a2.75 2.75 0 0 1-3.89 0l-1.837-1.839a1.25 1.25 0 0 0-1.768 0L8.53 19.864a.75.75 0 0 1-1.06-1.06l3.252-3.253a2.75 2.75 0 0 1 3.89 0l1.837 1.838a1.25 1.25 0 0 0 1.768 0z"/></svg>
